libs/icons/src/svg/theme-store.svg

<svg width="16" height="16" viewBox="0 0 16 16" fill="none" xmlns="http://www.w3.org/2000/svg">
<g clip-path="url(#clip0_3_3343)">
<path fill-rule="evenodd" clip-rule="evenodd" d="M2.09501 0.990341C2.21549 0.789538 2.4325 0.666672 2.66667 0.666672H13.3333C13.5675 0.666672 13.7845 0.789538 13.905 0.990341L15.905 4.32367C15.9669 4.42685 15.9997 4.54486 16 4.66518C16.0013 5.26502 15.8 5.84771 15.4286 6.31877C15.0573 6.78983 14.5377 7.12162 13.9541 7.26034C13.3705 7.39905 12.7572 7.33655 12.2136 7.08297C11.9726 6.97056 11.7516 6.82352 11.5568 6.64793C11.4389 6.75466 11.3111 6.85101 11.1748 6.93554C10.7552 7.19568 10.2713 7.33351 9.77767 7.33351C9.284 7.33351 8.80014 7.19568 8.38056 6.93554C8.2448 6.85137 8.11752 6.75547 8 6.64927C7.88249 6.75547 7.75521 6.85137 7.61944 6.93554C7.19987 7.19568 6.71601 7.33351 6.22234 7.33351C5.72867 7.33351 5.2448 7.19568 4.82523 6.93554C4.6889 6.85101 4.56111 6.75466 4.44319 6.64793C4.24839 6.82352 4.02738 6.97056 3.78641 7.08297C3.24281 7.33655 2.62948 7.39905 2.0459 7.26034C1.46232 7.12162 0.942718 6.78983 0.571358 6.31877C0.199998 5.84771 -0.00133689 5.26501 6.68114e-06 4.66518C0.000276213 4.54486 0.0331044 4.42685 0.0950097 4.32367L2.09501 0.990341ZM3.04413 2.00001L1.34342 4.83453C1.37311 5.07406 1.46771 5.30211 1.61844 5.49331C1.80375 5.72836 2.06303 5.89393 2.35423 5.96314C2.64544 6.03236 2.95149 6.00117 3.22274 5.87464C3.494 5.7481 3.71455 5.53364 3.84864 5.26603C3.96186 5.04005 4.19314 4.89754 4.4459 4.89801C4.69866 4.89847 4.92941 5.04184 5.0418 5.26823C5.15093 5.48805 5.31925 5.67303 5.52782 5.80234C5.7364 5.93166 5.97693 6.00017 6.22234 6.00017C6.46775 6.00017 6.70828 5.93166 6.91685 5.80234C7.12542 5.67303 7.29375 5.48805 7.40287 5.26823C7.51546 5.04144 7.7468 4.89801 8 4.89801C8.25321 4.89801 8.48455 5.04144 8.59714 5.26823C8.70626 5.48805 8.87459 5.67303 9.08316 5.80234C9.29173 5.93166 9.53226 6.00017 9.77767 6.00017C10.0231 6.00017 10.2636 5.93166 10.4722 5.80234C10.6808 5.67303 10.8491 5.48804 10.9582 5.26823C11.0706 5.04184 11.3014 4.89847 11.5541 4.89801C11.8069 4.89754 12.0381 5.04005 12.1514 5.26603C12.2855 5.53364 12.506 5.7481 12.7773 5.87464C13.0485 6.00117 13.3546 6.03236 13.6458 5.96314C13.937 5.89393 14.1963 5.72836 14.3816 5.49331C14.5323 5.30211 14.6269 5.07406 14.6566 4.83452L12.9559 2.00001H3.04413Z" fill="#202327"/>
<path fill-rule="evenodd" clip-rule="evenodd" d="M2.66667 8.00001C3.03486 8.00001 3.33333 8.29848 3.33333 8.66667V14H6V10.6667C6 10.2985 6.29848 10 6.66667 10H9.33333C9.70152 10 10 10.2985 10 10.6667V14H12.6667V8.66667C12.6667 8.29848 12.9651 8.00001 13.3333 8.00001C13.7015 8.00001 14 8.29848 14 8.66667V14.6667C14 15.0349 13.7015 15.3333 13.3333 15.3333H2.66667C2.29848 15.3333 2 15.0349 2 14.6667V8.66667C2 8.29848 2.29848 8.00001 2.66667 8.00001ZM7.33333 14H8.66667V11.3333H7.33333V14Z" fill="#202327"/>
</g>
<defs>
<clipPath id="clip0_3_3343">
<rect width="16" height="16" fill="white"/>
</clipPath>
</defs>
</svg>

<svg xmlns="http://www.w3.org/2000/svg" viewBox="0 0 16 16" class="sageicon"><path fill-rule="evenodd" d="M2.095.99c.12-.2.337-.323.572-.323h10.666c.235 0 .451.123.572.323l2 3.334a.667.667 0 0 1 .095.341 2.661 2.661 0 0 1-4.443 1.983A2.651 2.651 0 0 1 8 6.649a2.65 2.65 0 0 1-3.557-.001A2.661 2.661 0 0 1 0 4.665c0-.12.033-.238.095-.341l2-3.334ZM3.045 2 1.342 4.835a1.328 1.328 0 0 0 2.506.431.667.667 0 0 1 1.193.002 1.318 1.318 0 0 0 2.36 0 .667.667 0 0 1 1.195 0 1.318 1.318 0 0 0 2.361 0 .667.667 0 0 1 1.193-.002 1.328 1.328 0 0 0 2.506-.431L12.956 2H3.044ZM2.667 8c.368 0 .666.298.666.667V14H6v-3.333c0-.368.298-.667.667-.667h2.666c.369 0 .667.299.667.667V14h2.667V8.667a.667.667 0 1 1 1.333 0v6a.667.667 0 0 1-.667.666H2.667A.667.667 0 0 1 2 14.667v-6C2 8.298 2.298 8 2.667 8Zm4.666 6h1.334v-2.667H7.333V14Z"/></svg>
